!!!!SEGMENT: T233_Ive-w4p29s3-4.krn
!!!COM: Ives, Charles
!!!OTL: IV: Allegro marziale
!!!OMV: IV: Postlude: Allegro marziale
!!!example: 233
!!!work: Ive-4
!!!AGN-sub: Chamber
!!!OPR: String Quartet No. 1
!!!filename: T233_Ive-w4p29s3-4.krn
**kern	**dynam	**kern	**dynam	**kern	**dynam	**kern	**dynam
*grp:A	*	*grp:B	*	*grp:A	*	*grp:B	*
*part4	*	*part3	*	*part2	*	*part1	*
*staff4	*	*staff3	*	*staff2	*	*staff1	*
*ICstr	*	*ICstr	*	*ICstr	*	*ICstr	*
*Icello	*	*Iviola	*	*Ivioln	*	*Ivioln	*
*I"Violoncello	*	*I"Viola	*	*I"Violin II	*	*I"Violin I	*
*I'vc	*	*I'vla	*	*I'vn	*	*I'vn	*
*clefF4	*	*clefC3	*	*clefG2	*	*clefG2	*
*k[f#]	*	*k[f#]	*	*k[f#]	*	*k[f#]	*
*G:	*	*G:	*	*G:	*	*G:	*
!!LO:TX:tempo:a:t=[Allegro marziale]\n{[quarter]=108; [quarter]=108}
*M3/4	*	*M3/4	*	*M4/4	*	*M3/4	*
*met(c)	*	*	*	*met(c)	*	*	*
*MM121	*	*MM121	*	*MM121	*	*MM121	*
=147	=147	=147	=147	=147	=147	=147	=147
!	!	!	!LO:DY:t=%s marcato	!	!LO:DY:t=%s risoluto	!	!
4.GG^: 4.D: 4.G:	ff	4BOOO	mf	8dL	mf	(4gg^^	mf
.	.	.	.	8gJ	.	.	.
.	.	12BL	.	[4g	.	4ee	.
.	.	12A	.	.	.	.	.
8G/^>	.	.	.	.	.	.	.
.	.	[12GJ^^	.	.	.	.	.
4GG^: 4D: 4B:	.	4G]OOO	.	8gL]	.	4dd	.
.	.	.	.	8aJ	.	.	.
=148-	=148	=148	=148	=148-	=148	=148	=148
4G	.	12F#L	.	8bL	.	4.b^^	.
.	.	12E	.	.	.	.	.
.	.	.	.	8dJ	.	.	.
*bar	*	*	*	*bar	*	*	*
.	.	12DJ	.	.	.	.	.
!LO:N:n=1:vis=4	!	!	!	!	!	!	!
!LO:N:n=2:vis=4	!	!	!	!	!	!	!
2CC^^: 2C: 2G:	.	8GL	.	[4c [4e	.	.	.
.	.	8cJ	.	.	.	8a	.
.	.	4cOOO	.	(>12cL] 12e]	.	4g)	.
.	.	.	.	12d 12f#	.	.	.
.	.	.	.	[12eJ [12g	.	.	.
=149-	=149	=149	=149	=149-	=149	=149	=149
*	*	*	*	*^	*	*	*
4E^^	.	4BOOO	.	12g]L	2e]	.	(4gg^^	.
.	.	.	.	12a	.	.	.	.
.	.	.	.	12bJ	.	.	.	.
4G	.	4cOOO	.	8aL	.	.	4ee	.
.	.	.	.	8gJ)	.	.	.	.
*	*	*	*	*v	*v	*	*	*
*bar	*	*	*	*bar	*	*	*
4GG^: 4D:	.	12BL	.	4g	.	4dd	.
.	.	12A	.	.	.	.	.
.	.	12GJ	.	.	.	.	.
=150-	=150	=150	=150	=150-	=150	=150	=150
*	*	*^	*	*	*	*	*
4G	.	4E 4c#X	4ryy	.	(8eL	.	2a)	.
.	.	.	.	.	8aJ)	.	.	.
4DD^: 4A:	.	12cnL	4D	.	4f# 4a	.	.	.
.	.	12d	.	.	.	.	.	.
.	.	12eJ	.	.	.	.	.	.
4B	.	4d/	4ryy	.	4g	.	8.gL	.
.	.	.	.	.	.	.	16bJk	.
*	*	*v	*v	*	*	*	*	*
=151	=151	=151	=151	=151	=151	=151	=151
!LO:N:n=1:vis=4	!	!	!	!	!	!	!
!LO:N:n=2:vis=2	!	!	!	!	!	!	!
2.DD: 2.D: 2.A:	.	(8AL	.	[4f# [4a	.	(4cc	.
.	.	8dJ)	.	.	.	.	.
.	.	4.dOOO	.	12f#L] 12a]	.	4ee	.
.	.	.	.	12e 12g	.	.	.
.	.	.	.	12dJ 12f#	.	.	.
.	.	.	.	8dL 8f#	.	4cc)	.
.	.	8e	.	8eJ	.	.	.
=152-	=152	=152	=152	=152-	=152	=152	=152
4D	.	8f#L	.	4d	.	(4b	.
.	.	8dJ	.	.	.	.	.
*bar	*	*	*	*bar	*	*	*
!LO:N:n=1:vis=4	!	!	!	!	!	!	!
!LO:N:n=2:vis=4	!	!	!	!	!	!	!
4.GG 4.D 4.G	.	4BOOO 4g	.	8dL	.	4dd	.
.	.	.	.	8gJ	.	.	.
.	.	12BL/	.	4g	.	4b)	.
.	.	12c	.	.	.	.	.
8G	.	.	.	.	.	.	.
.	.	12dJ	.	.	.	.	.
=153-	=153	=153	=153	=153-	=153	=153	=153
4BB: 4B:	.	[4d#X	.	[4f#	.	(8aL	.
.	.	.	.	.	.	16bL	.
.	.	.	.	.	.	16ccJJ	.
!	!	!LO:TUP:a	!	!	!	!	!
4A	.	12d#L]	.	12f#L]	.	4cc	.
.	.	12e	.	12g	.	.	.
.	.	[12d#J	.	[12f#J	.	.	.
*bar	*	*	*	*bar	*	*	*
!LO:N:n=2:vis=2	!	!LO:TUP:a	!	!	!	!	!
!LO:T:color=white	!	!	!	!	!	!	!
[4GG^> [4G	.	12d#L]	.	12f#L]	.	4a	.
.	.	12e	.	12g	.	.	.
.	.	12cJ	.	12eJ	.	.	.
=154-	=154	=154	=154	=154-	=154	=154	=154
4GGyy] 4Gyy]	.	8BL	.	8eL	.	2g)	.
.	.	8eJ	.	8BJ	.	.	.
4E	.	4.eOOO	.	12cL	.	.	.
.	.	.	.	12B	.	.	.
.	.	.	.	12AJ	.	.	.
4E	.	.	.	[4B	.	(4gg	.
.	.	8f#	.	.	.	.	.
=155	=155	=155	=155	=155	=155	=155	=155
4DD: 4D:	.	2gOOO 2b^	.	12BL]	.	4ff#	.
.	.	.	.	12c	.	.	.
.	.	.	.	[12dJ	.	.	.
4G	.	.	.	8dL]	.	4ee	.
.	.	.	.	8gJ	.	.	.
!	!	!LO:TUP:a	!	!	!	!	!
4B	.	12dL	.	4g	.	4dd	.
.	.	12e	.	.	.	.	.
.	.	12dJ	.	.	.	.	.
=156-	=156	=156	=156	=156-	=156	=156	=156
4AA 4A	.	4d#X	.	12f#L	.	2b)	.
.	.	.	.	12g	.	.	.
.	.	.	.	12f#J	.	.	.
*bar	*	*	*	*bar	*	*	*
!LO:N:vis=2.	!	!LO:TUP:a	!	!	!	!	!
!LO:T:color=white	!	!	!	!	!	!	!
[2GG [2G	.	12dnL	.	2fnOOO	.	.	.
.	.	12e	.	.	.	.	.
.	.	12dJ	.	.	.	.	.
.	.	8cL	.	.	.	(8aaL	.
.	.	8BJ	.	.	.	8ggJ	.
=157-	=157	=157	=157	=157-	=157	=157	=157
4GGyy] 4Gyy]	.	4c	.	(12eL	.	4ee	.
.	.	.	.	12f#	.	.	.
.	.	.	.	[12gJ)	.	.	.
8DL	.	4B	.	4g]OOO	.	4dd	.
16C#L	.	.	.	.	.	.	.
16DJJ	.	.	.	.	.	.	.
*bar	*	*	*	*bar	*	*	*
!LO:N:vis=4.	!	!	!	!LO:N:vis=2	!	!	!
!LO:T:color=white	!	!	!	!LO:T:color=white	!	!	!
[4AA [4A	.	8c#XL	.	[4eOOO	.	4b)	.
.	.	16B#XL	.	.	.	.	.
.	.	[>16c#JJ	.	.	.	.	.
=158-	=158	=158	=158	=158-	=158	=158	=158
8AAyy] 8Ayy]	.	4c#]OOO	.	4e]yyOOO	.	4a	.
8A	.	.	.	.	.	.	.
4GG#X: 4G#X:	.	2dOOO	.	12fnL	.	(4.cc	.
.	.	.	.	12e	.	.	.
.	.	.	.	[12fJ	.	.	.
4AA 4A	.	.	.	4f]OOO	.	.	.
.	.	.	.	.	.	16bLL	.
.	.	.	.	.	.	16aJJ)	.
=-	=	=||	=	=-	=	=||	=
*-	*-	*-	*-	*-	*-	*-	*-
!!!system-decoration: [(s1,s2,s3,s4)]
!!!RDF**kern: > = above
!!!RDF**kern: < = below
!!!RDF**kern: O = tremolo
!!!CDT: 1874/10/20-1954/05/19
!!!CBL: Danbury, United States
!!!CDL: New York, United States
!!!CNT: American
!!!AGN: Instrumental
!!!MCN:
!!!MDT: 1957/04/24
!!!MGN: Kohon String Quartet
!!!MLC: New York, New York, United States of America
!!!MPD: 1957
!!!MPN: Bellam, Paul; Kay, Richard; Kohon, Harold; Kunicki, Raymond
!!!ODT: 1909
!!!PDT: 1961
!!!excerpt-start-measure: 147
!!!excerpt-end-measure: 158
!!!excerpt-start-time: 4:09
!!!excerpt-end-time: 4:29
!!!ONB: Converted from MusicXML on 2020/01/27
!!!EED: Jason Lee
!!!EEV: 2023/01/12
!!!EED2: Bryan Bell
!!!Suter_Work_ID: Ive-4
!!!Suter_Example_Number: 233
!!!Suter_Example_ID: Ive-4/29/lignes 3 et 4
!!!Premiere_Location: New York,United States
!!!Other_Tsigs: none
!!!Full_Unit_Duration: 5:17
!!!First_Publication_Year: 1961
!!!First_Public_Performance_Year: 1957
!!!Example_Total_Measures: 12
!!!Example_Timestamp_Duration: 20
!!!Example_Start_Tsig_Type: polymetric
!!!Example_Start_Tsig_Mean_Beat_Rate: 108
!!!Example_Start_Tsig_Beat_Rate: 108;108
!!!Example_Start_Tsig_Beat: quarter;quarter
!!!Example_Start_Tsig: 4/4;3/4
!!!Example_Start_Timestamp: 4:09
!!!Example_Start_Tempo_Expression: [Allegro marziale]
!!!Example_Start_Notated_Beat_Rate: {108};{108}
!!!Example_Start_Notated_Beat: {quarter};{quarter}
!!!Example_Start_Measure: 147
!!!Example_Metadata_Validated: Y
!!!Example_End_Timestamp: 4:29
!!!Example_End_Measure: 158
!!!Example_Dataset: T
!!!Editorial_Comments: No notated tempo. Example Start Notated Beat and Example Start Notated Beat Rate {quarter;quarter=108;108} calculated from recording (https://ubc-nml3-naxosmusiclibrary-com.eu1.proxy.openathens.net/catalogue/item.asp?cid=00028943586429). Example Start Tempo Expression [Allegro marziale] based on most recent notated tempo expression (SWFU, m. 100).
!!!Death_Place: New York,United States
!!!Death_Date: 19-May-1954
!!!Changing_Tsig: no
!!!Birth_Place: Danbury,United States
!!!Birth_Date: 20-Oct-1874
!!!Audio_Example_Quarter_Note_Tempo:
!!!Audio_Example_Duration:
!!!EEV2: 2023/01/13
